source/img/icon/call-icon.svg

<svg width="23" height="23" viewBox="0 0 23 23" fill="none" xmlns="http://www.w3.org/2000/svg">
<path d="M3.37141 3.36992C7.86464 -1.12331 15.1446 -1.12331 19.6331 3.36992C23.9542 7.69107 24.1168 14.603 20.1159 19.1201L19.9964 19.2157C20.4314 20.1526 21.177 21.3094 22.3625 21.8925C22.7545 22.0837 22.6636 22.6669 22.2334 22.7338C20.938 22.9346 19.0786 22.7099 17.3435 21.4002L17.3196 21.4193C12.9124 24.0101 7.14764 23.4174 3.36185 19.6316C-1.12183 15.1431 -1.12183 7.85837 3.37141 3.36992ZM7.71168 16.4194C7.96502 16.6775 8.23271 16.9165 8.47171 17.1842C8.82065 17.5762 9.26041 17.7005 9.75754 17.6718C10.4841 17.6335 11.1581 17.3898 11.8034 17.0743C13.2422 16.3764 14.4707 15.406 15.4984 14.1824C16.2584 13.2789 16.8846 12.2942 17.3004 11.1805C17.5012 10.6404 17.6446 10.0906 17.6016 9.50748C17.5729 9.14898 17.4391 8.84306 17.1762 8.58972C16.8893 8.31726 16.6217 8.03523 16.3396 7.75799C15.9716 7.39471 15.5127 7.39949 15.1446 7.75799C14.9152 7.98265 14.6953 8.20731 14.4707 8.43198C14.2508 8.65186 14.0309 8.86696 13.8158 9.08684C13.4334 9.47402 13.4334 9.92335 13.8158 10.3105C14.0882 10.5878 14.3607 10.865 14.6427 11.1327C14.7144 11.2044 14.724 11.2618 14.6858 11.3526C14.5041 11.7923 14.2364 12.1843 13.9401 12.5476C13.3426 13.2837 12.6638 13.9386 11.8512 14.4453C11.6791 14.5552 11.4879 14.6317 11.3063 14.7321C11.2154 14.7846 11.1485 14.7655 11.0768 14.689C10.8044 14.407 10.5223 14.1298 10.2451 13.8525C9.87704 13.4893 9.41815 13.4893 9.05487 13.8525C8.60555 14.2971 8.161 14.7416 7.71646 15.1909C7.33406 15.5829 7.33406 16.0418 7.71168 16.4194ZM11.9516 8.99124L11.8082 7.96831C10.8187 8.10693 9.92006 8.55626 9.21261 9.2637C8.53863 9.93769 8.09886 10.7838 7.94112 11.7159L8.95927 11.8927C9.08355 11.1709 9.42293 10.5161 9.94396 9.99505C10.4937 9.44534 11.1868 9.0964 11.9516 8.99124ZM6.27767 11.7159C6.50711 10.3774 7.13808 9.16332 8.09886 8.19775C9.11223 7.18439 10.3981 6.54386 11.8177 6.3431L11.6743 5.32018C10.0348 5.54962 8.54341 6.29052 7.3723 7.46641C6.25855 8.58016 5.5272 9.99027 5.25952 11.539L6.27767 11.7159Z" fill="#27ACE2"/>
</svg>

<svg width="23" height="23" fill="none" xmlns="http://www.w3.org/2000/svg"><path d="M3.371 3.37c4.494-4.493 11.774-4.493 16.262 0 4.321 4.321 4.484 11.233.483 15.75l-.12.096c.435.937 1.181 2.093 2.367 2.676.392.192.3.775-.13.842-1.295.2-3.154-.024-4.89-1.334l-.023.02c-4.408 2.59-10.172 1.997-13.958-1.788-4.484-4.489-4.484-11.774.01-16.262zm4.34 13.05c.254.257.522.496.76.764.35.392.79.517 1.287.488.726-.038 1.4-.282 2.045-.598a11.122 11.122 0 0 0 3.695-2.892c.76-.903 1.387-1.888 1.802-3.002.201-.54.345-1.09.302-1.673a1.377 1.377 0 0 0-.426-.917c-.287-.273-.554-.555-.836-.832-.368-.363-.827-.359-1.195 0-.23.225-.45.45-.674.674-.22.22-.44.435-.655.655-.383.387-.383.836 0 1.223.272.278.545.555.827.823.071.071.081.129.043.22-.182.44-.45.831-.746 1.195-.597.736-1.276 1.39-2.089 1.897-.172.11-.363.187-.545.287-.09.053-.157.034-.23-.043-.272-.282-.554-.56-.83-.837-.369-.363-.828-.363-1.191 0-.45.445-.894.89-1.339 1.339-.382.392-.382.85-.004 1.228zm4.24-7.429l-.143-1.023a4.537 4.537 0 0 0-2.595 1.296 4.515 4.515 0 0 0-1.272 2.452l1.018.177a3.51 3.51 0 0 1 .985-1.898 3.494 3.494 0 0 1 2.008-1.004zm-5.673 2.725a6.526 6.526 0 0 1 1.82-3.518 6.507 6.507 0 0 1 3.72-1.855l-.144-1.023c-1.64.23-3.13.97-4.302 2.146A7.554 7.554 0 0 0 5.26 11.54l1.018.177z" fill="#27ACE2"/></svg>
